resources/svg/major-columns2.svg

<svg xmlns="http://www.w3.org/2000/svg" viewBox="0 0 20 20" fill="currentColor"><path fill-rule="evenodd" d="M0 2C0 0.895431 0.895431 0 2 0H18C19.1046 0 20 0.895431 20 2V18C20 19.1046 19.1046 20 18 20H2C0.895431 20 0 19.1046 0 18V2ZM11 2H18V18H11L11 2ZM9 2H2V18H9L9 2Z" fill="#5C5F62"/></svg>

<svg xmlns="http://www.w3.org/2000/svg" viewBox="0 0 20 20" fill="currentColor"><path fill-rule="evenodd" d="M0 2a2 2 0 0 1 2-2h16a2 2 0 0 1 2 2v16a2 2 0 0 1-2 2h-16a2 2 0 0 1-2-2v-16Zm11 0h7v16h-7v-16Zm-2 0h-7v16h7v-16Z"/></svg>
